X: 2376
T: Baker's, The
R: reel
M: 4/4
K: Amajor
cAED CEAc|dFBA GBed|cAED CEAc|1 dfBg aAAB:|2 dfBg aAAg||
aaga faec|dcBA GBeg|aaga faec|dfBg aAAg|
aaga faec|dcBA GBed|cAED CEAc|dfBg aAAB||

